!!!OTL: ACH SCHIFFMANN DU FEIN GUETIGER MANN
!!!ARE: Europa, Mitteleuropa, Deutschland, Brandenburg, Wilsnack; Granzow
!!!SCT: E0078
!!!YEM: Copyright 1995, estate of Helmut Schaffrath.
**kern
*ICvox
*Ivox
*M2/4
*k[]
*C:
{16e
16f
=1
8g
8e
8g
8cc
=2
16g
16f
16e
16d
8c}
{8cc
=3
8dd
8ee
8.dd
16cc
=4
8b
8a
8g}
{8cc
=5
8a
16f
16f
8f
8dd
=6
16cc
16b
16a
16b
8g}
{8cc
=7
8.e
16f
8.d
16e
=8
4c
8r}
{8f
=9
16e
16g
8cc
8.e
16d
=10
4c
8r}
{16e
16f
=11
8g
8e
8g
8cc
=12
16g
16f
16e
16d
8c}
{8cc
=13
8dd
8ee
8.dd
16cc
=14
8b
8a
8g}
{8cc
=15
8a
16f
16f
8f
8dd
=16
16cc
16b
16a
16b
8g}
{8cc
=17
8.e
16f
8.d
16e
=18
4c
8r}
{8f
=19
16e
16g
8cc
8.e
16d
=20
4c
8r}
{16e
16f
=21
8g
8e
8g
8cc
=22
16g
16f
16e
16d
8c}
{8cc
=23
8dd
8ee
8.dd
16cc
=24
8b
8a
8g}
{8g
=25
8a
8g
8a
8b
=26
8cc
16b
16a
8.g}
{16cc
=27
8.e
16f
8.d
16e
=28
4.c}
{8f
=29
16e
16g
8cc
8.e
16d
=30
4c
8r}
==
!!!AGN: erzaehlendes Volks - Lied, Sage, Liebe, Ballade ?
!!!ONB: ESAC (Essen Associative Code) Database: ERK1
!!!AMT: simple duple
!!!AIN: vox
!!!EED: Helmut Schaffrath
!!!EEV: 1.0
*-
